client/images/icon_Seaded_hover.svg

<?xml version="1.0" encoding="UTF-8"?>
<svg width="20px" height="20px" viewBox="0 0 20 20" version="1.1" xmlns="http://www.w3.org/2000/svg" xmlns:xlink="http://www.w3.org/1999/xlink">
    <!-- Generator: Sketch 46.2 (44496) - http://www.bohemiancoding.com/sketch -->
    <title>icon_Seaded hover</title>
    <desc>Created with Sketch.</desc>
    <defs></defs>
    <g id="Buttons&amp;Icons" stroke="none" stroke-width="1" fill="none" fill-rule="evenodd">
        <g id="eID" transform="translate(-232.000000, -252.000000)" stroke="#006EB5">
            <g id="icon_Seaded-hover" transform="translate(232.000000, 252.000000)">
                <path d="M15.5731036,17.694424 L15.8683332,17.9896535 L15.2386853,17.9263474 C15.3518792,17.8513768 15.4633754,17.7740455 15.5731035,17.6944238 Z M0.617676507,8.5 C0.539562913,8.99266174 0.5,9.49369221 0.5,10 C0.5,10.5063078 0.539562913,11.0073383 0.617676507,11.5 L2.63963971,11.5 L2.73625347,11.8753708 C2.91152389,12.5563441 3.18184668,13.2066697 3.53810287,13.8095724 L3.73533147,14.1433482 L2.30557601,15.5731036 C2.8962259,16.3870886 3.61291141,17.1037741 4.42689653,17.6944238 L5.85665181,16.2646685 L6.19042755,16.4618971 C6.79333035,16.8181533 7.44365592,17.0884761 8.12462923,17.2637465 L8.5,17.3603603 L8.5,19.3823234 C8.9926617,19.4604371 9.49369219,19.5 10,19.5 C10.5063078,19.5 11.0073383,19.4604371 11.5,19.3823235 L11.5,17.3603603 L11.8753708,17.2637465 C12.5563441,17.0884761 13.2066697,16.8181533 13.8095724,16.4618971 L14.1433482,16.2646685 L15.5731036,17.694424 C16.3870886,17.1037741 17.1037741,16.3870886 17.6944238,15.5731035 L16.2646685,14.1433482 L16.4618971,13.8095724 C16.8181533,13.2066697 17.0884761,12.5563441 17.2637465,11.8753708 L17.3603603,11.5 L19.3823234,11.5 C19.4604371,11.0073383 19.5,10.5063078 19.5,10 C19.5,9.49369221 19.4604371,8.99266174 19.3823235,8.5 L17.3603603,8.5 L17.2637465,8.12462923 C17.0884761,7.44365592 16.8181533,6.79333035 16.4618971,6.19042755 L16.2646685,5.85665181 L17.6944238,4.42689653 C17.1037741,3.61291141 16.3870886,2.8962259 15.5731035,2.30557619 L14.1433482,3.73533147 L13.8095724,3.53810287 C13.2066697,3.18184668 12.5563441,2.91152389 11.8753708,2.73625347 L11.5,2.63963971 L11.5,0.617676576 C11.0073383,0.539562916 10.5063078,0.5 10,0.5 C9.49369221,0.5 8.99266174,0.539562913 8.5,0.617676507 L8.5,2.63963971 L8.12462923,2.73625347 C7.44365592,2.91152389 6.79333035,3.18184668 6.19042755,3.53810287 L5.85665181,3.73533147 L4.42689636,2.30557601 C3.61291141,2.8962259 2.8962259,3.61291141 2.30557619,4.42689653 L3.73533147,5.85665181 L3.53810287,6.19042755 C3.18184668,6.79333035 2.91152389,7.44365592 2.73625347,8.12462923 L2.63963971,8.5 L0.617676507,8.5 Z M1.87373925,7.5 L2.25203497,7.5 L1.76781647,7.87537077 C1.80026707,7.74929137 1.8355893,7.62413993 1.87373761,7.5 Z M6.02202227,2.48648836 L6.2896187,2.75408479 L5.68170306,2.67717349 C5.79371924,2.61098296 5.90718686,2.54740557 6.02202134,2.48648744 Z M2.48648836,13.9779777 L2.75408479,13.7103813 L2.67717349,14.3182969 C2.61098296,14.2062808 2.54740557,14.0928131 2.48648744,13.9779787 Z" id="Combined-Shape"></path>
                <path d="M13,10 C13,8.34314575 11.6568542,7 10,7 C8.34314575,7 7,8.34314575 7,10 C7,11.6568542 8.34314575,13 10,13 L10,13" id="Oval-3"></path>
            </g>
        </g>
    </g>
</svg>

<?xml version="1.0" encoding="UTF-8"?>
<svg width="200" height="200" viewBox="0 0 200 200" version="1.1" xmlns="http://www.w3.org/2000/svg" xmlns:xlink="http://www.w3.org/1999/xlink">
    <title>icon_Seaded</title>
    <g id="Buttons&amp;Icons" transform="scale(10)" stroke-width="1" fill="none" stroke="#006EB5">
        <path d="M 0.61767651,8.5 C 0.53956291,8.9926617 0.5,9.4936922 0.5,10 c 0,0.506308 0.0395629,1.007338 0.11767651,1.5 H 2.6396397 l 0.096614,0.375371 c 0.1752704,0.680973 0.4455932,1.331299 0.8018494,1.934201 l 0.1972286,0.333776 -1.4297555,1.429756 c 0.5906499,0.813985 1.3073354,1.53067 2.1213205,2.12132 l 1.4297553,-1.429756 0.3337757,0.197229 c 0.6029028,0.356256 1.2532284,0.626579 1.9342017,0.801849 L 8.5,17.36036 v 2.021963 C 8.9926617,19.460437 9.4936922,19.5 10,19.5 c 0.506308,0 1.007338,-0.03956 1.5,-0.117677 V 17.36036 l 0.375371,-0.09661 c 0.680973,-0.17527 1.331299,-0.445593 1.934201,-0.801849 l 0.333776,-0.197229 1.429756,1.429756 c 0.813985,-0.59065 1.53067,-1.307335 2.12132,-2.12132 l -1.429756,-1.429756 0.197229,-0.333776 c 0.356256,-0.602902 0.626579,-1.253228 0.801849,-1.934201 L 17.36036,11.5 h 2.021963 C 19.460437,11.007338 19.5,10.506308 19.5,10 19.5,9.4936922 19.460437,8.9926617 19.382323,8.5 H 17.36036 L 17.263746,8.1246292 C 17.088476,7.4436559 16.818153,6.7933303 16.461897,6.1904275 L 16.264668,5.8566518 17.694424,4.4268965 C 17.103774,3.6129114 16.387089,2.8962259 15.573104,2.3055762 L 14.143348,3.7353315 13.809572,3.5381029 C 13.20667,3.1818467 12.556344,2.9115239 11.875371,2.7362535 L 11.5,2.6396397 V 0.61767658 C 11.007338,0.53956292 10.506308,0.5 10,0.5 9.4936922,0.5 8.9926617,0.53956291 8.5,0.61767651 V 2.6396397 L 8.1246292,2.7362535 C 7.4436559,2.9115239 6.7933303,3.1818467 6.1904275,3.5381029 L 5.8566518,3.7353315 4.4268964,2.305576 C 3.6129114,2.8962259 2.8962259,3.6129114 2.3055762,4.4268965 L 3.7353315,5.8566518 3.5381029,6.1904275 C 3.1818467,6.7933303 2.9115239,7.4436559 2.7362535,8.1246292 L 2.6396397,8.5 Z" id="Combined-Shape"></path>
        <path d="M13,10 C13,8.34314575 11.6568542,7 10,7 C8.34314575,7 7,8.34314575 7,10 C7,11.6568542 8.34314575,13 10,13 L10,13" id="Oval-3"></path>
    </g>
</svg>
